src/assets/icons/arrow-next.svg

<svg width="40" height="40" viewBox="0 0 40 40" fill="none" xmlns="http://www.w3.org/2000/svg">
<g id="Arrow">
<circle id="Ellipse 102" cx="20" cy="20" r="20" fill="#F4F5FA"/>
<path id="Union" opacity="0.6" fill-rule="evenodd" clip-rule="evenodd" d="M18.5121 6.67542C19.3349 5.85259 20.669 5.85258 21.4918 6.67542L30.4311 15.6146C31.2539 16.4375 31.2539 17.7716 30.4311 18.5944C29.6082 19.4172 28.2741 19.4172 27.4513 18.5944L18.5121 9.65516C17.6892 8.83233 17.6892 7.49825 18.5121 6.67542ZM18.5104 33.4918C17.6875 32.669 17.6875 31.3349 18.5104 30.5121L27.4496 21.5729C28.2724 20.75 29.6065 20.75 30.4293 21.5729C31.2522 22.3957 31.2522 23.7298 30.4293 24.5526L21.4901 33.4918C20.6673 34.3147 19.3332 34.3147 18.5104 33.4918ZM9.27883 17.9742C8.11517 17.9742 7.17183 18.9176 7.17183 20.0812C7.17183 21.2449 8.11517 22.1882 9.27883 22.1882L21.9208 22.1882C23.0845 22.1882 24.0278 21.2449 24.0278 20.0812C24.0278 18.9176 23.0845 17.9742 21.9208 17.9742L9.27883 17.9742Z" fill="#517185"/>
</g>
</svg>

<svg width="40" height="40" fill="none" xmlns="http://www.w3.org/2000/svg"><circle cx="20" cy="20" r="20" fill="#F4F5FA"/><path opacity=".6" fill-rule="evenodd" clip-rule="evenodd" d="M18.512 6.675a2.107 2.107 0 0 1 2.98 0l8.94 8.94a2.107 2.107 0 0 1-2.98 2.98l-8.94-8.94a2.107 2.107 0 0 1 0-2.98zm-.002 26.817a2.107 2.107 0 0 1 0-2.98l8.94-8.94a2.107 2.107 0 1 1 2.98 2.98l-8.94 8.94a2.107 2.107 0 0 1-2.98 0zM9.28 17.974a2.107 2.107 0 0 0 0 4.214H21.92a2.107 2.107 0 1 0 0-4.214H9.279z" fill="#517185"/></svg>
